tools/panel_16/solaar-attention.svg

<svg xmlns="http://www.w3.org/2000/svg" width="16" height="16" version="1.1">
 <defs>
  <style id="current-color-scheme" type="text/css">
   .ColorScheme-Text { color:#d3dae3; } .ColorScheme-Highlight { color:#5294e2; }
  </style>
 </defs>
 <g>
  <path style="fill:currentColor" class="ColorScheme-Text" d="M 3,1 C 1.892,1 1,1.892 1,3 l 0,10 c 0,1.108 0.892,2 2,2 l 10,0 c 1.108,0 2,-0.892 2,-2 L 15,3 C 15,1.892 14.108,1 13,1 Z M 5.8652,2.3047 7.451,5.0527 C 7.6319936,5.0183134 7.81577,5.0006722 8,5 c 0.1835616,7.948e-4 0.366663,0.018435 0.547,0.0527 l 1.588,-2.748 1.73,1 -1.586,2.75 C 10.517637,6.3336768 10.703042,6.6540853 10.826,7 L 14,7 14,9 10.824,9 c -0.121341,0.3469244 -0.305397,0.668599 -0.543,0.949 l 1.584,2.746 -1.73,1 -1.586,-2.748 C 8.3680157,10.981487 8.1842392,10.999229 8,11 7.8164291,10.999106 7.6333277,10.981365 7.453,10.947 l -1.5878,2.748 -1.7304,-1 1.5859,-2.75 C 5.4821303,9.666105 5.2967609,9.3458013 5.1738,9 L 2,9 2,7 5.1758,7 C 5.2971184,6.653005 5.4811756,6.3312609 5.7188,6.0508 L 4.1348,3.3047 Z"/>
  <path style="fill:currentColor" class="ColorScheme-Highlight" d="M 8,6 A 2,2 0 0 0 6,8 2,2 0 0 0 8,10 2,2 0 0 0 10,8 2,2 0 0 0 8,6 Z"/>
 </g>
</svg>

<svg xmlns="http://www.w3.org/2000/svg" width="16" height="16" version="1.1">
 <defs>
  <style id="current-color-scheme" type="text/css">
   .ColorScheme-Text { color:#d3dae3; } .ColorScheme-Highlight { color:#5294e2; }
  </style>
 </defs>
 <path style="fill:currentColor" class="ColorScheme-Text" d="M 3,1 C 1.892,1 1,1.892 1,3 V 13 C 1,14.108 1.892,15 3,15 H 13 C 14.108,15 15,14.108 15,13 V 3 C 15,1.892 14.108,1 13,1 Z M 5.8652,2.3047 7.451,5.0527 C 7.632,5.0183 7.8158,5.0007 8,5 8.1836,5.0008 8.3667,5.0184 8.547,5.0527 L 10.135,2.3047 11.865,3.3047 10.279,6.0547 C 10.518,6.3337 10.703,6.6541 10.826,7 H 14 V 9 H 10.824 C 10.703,9.3469 10.519,9.6686 10.281,9.949 L 11.865,12.695 10.135,13.695 8.549,10.947 C 8.368,10.981 8.1842,10.999 8,11 7.8164,10.999 7.6333,10.981 7.453,10.947 L 5.8652,13.695 4.1348,12.695 5.7207,9.945 C 5.4821,9.6661 5.2968,9.3458 5.1738,9 H 2 V 7 H 5.1758 C 5.2971,6.653 5.4812,6.3313 5.7188,6.0508 L 4.1348,3.3047 Z"/>
 <path style="fill:currentColor" class="ColorScheme-Highlight" d="M 8,6 A 2,2 0 0 0 6,8 2,2 0 0 0 8,10 2,2 0 0 0 10,8 2,2 0 0 0 8,6 Z"/>
</svg>
